svgs/solid/mailbox-flag-up.svg

<svg xmlns="http://www.w3.org/2000/svg" viewBox="0 0 576 512"><!--! Font Awesome Pro 6.6.0 by @fontawesome - https://fontawesome.com License - https://fontawesome.com/license (Commercial License) Copyright 2024 Fonticons, Inc. --><path d="M400 16c-29.8 0-54.9 20.4-62 48l-92.8 0C290.4 95.9 320 148.5 320 208l0 176c0 24.6-9.2 47-24.4 64L512 448c35.3 0 64-28.7 64-64l0-176c0-42.6-18.5-81-48-107.3L528 80c0-35.3-28.7-64-64-64l-64 0zm0 208c-8.8 0-16-7.2-16-16l0-96 0-32c0-8.8 7.2-16 16-16l64 0c8.8 0 16 7.2 16 16l0 32c0 8.8-7.2 16-16 16l-48 0 0 80c0 8.8-7.2 16-16 16zM0 208L0 384c0 35.3 28.7 64 64 64l160 0c35.3 0 64-28.7 64-64l0-176c0-79.5-64.5-144-144-144S0 128.5 0 208zm64 0c0-8.8 7.2-16 16-16l128 0c8.8 0 16 7.2 16 16s-7.2 16-16 16L80 224c-8.8 0-16-7.2-16-16z"/></svg>

<svg xmlns="http://www.w3.org/2000/svg" viewBox="0 0 576 512"><!--! Font Awesome Pro 6.5.2 by @fontawesome - https://fontawesome.com License - https://fontawesome.com/license (Commercial License) Copyright 2024 Fonticons, Inc. --><path d="M400 16c-29.8 0-54.9 20.4-62 48H245.2C290.4 95.9 320 148.5 320 208V384c0 24.6-9.2 47-24.4 64H512c35.3 0 64-28.7 64-64V208c0-42.6-18.5-81-48-107.3V80c0-35.3-28.7-64-64-64H400zm0 208c-8.8 0-16-7.2-16-16V112 80c0-8.8 7.2-16 16-16l64 0c8.8 0 16 7.2 16 16v32c0 8.8-7.2 16-16 16H416v80c0 8.8-7.2 16-16 16zM0 208V384c0 35.3 28.7 64 64 64H224c35.3 0 64-28.7 64-64V208c0-79.5-64.5-144-144-144S0 128.5 0 208zm64 0c0-8.8 7.2-16 16-16H208c8.8 0 16 7.2 16 16s-7.2 16-16 16H80c-8.8 0-16-7.2-16-16z"/></svg>
